X:3541
L:1/8
Q:1/2=70
M:4/4
K:D
|: d>e | f>ef>g a>Ad>B | A>GA>B A2 fd | cBge dcaf | eg/f/ e2 z2 d>e | f>ef>g a>Ad>B | 
 A>GA>B A2 f2 | fe/f/ ^g/f/e/d/ c2 TB2 | A>aa>a a2 :: e2 | e>fe>d dcBA | BEe>d dcBA | BEe>d dcBA | 
 f2 f>f f2 f>g | a>ba>g fedc |"_NB1" eAag gfed | eAag gfed | d2 c>c c2 d>e | f>ef>g a>Ad>B | 
 A>GA>B Aafd | B>cd>e ebge | c>de>f fbaf | d>ef>g gd'bg | e>fg>a a>ba>g | gfed d2 ec | 
 ga/b/ ab/g/ fg/a/ gf | f/e/g/f/ a/g/f/e/ Td2 c>e | d>d'd'>d' d'2 :|

